X:4054
T:Der Wchterruf
R:
O:Alsace - Elsass
A:
S:
B:Chansons populaires de l'Alsace
Z:transcription (partition) : eric.forgeot@caramail.com
N:Weckerlin - p. 72
N:
M:C
L:1/8
Q:1/4=130
K:G
z2 z2 d2 d d | d2 d d B2 G z | z2 G>B d2 d>B | A2 G2 z2 z D ||
G3 G A G F E | D4 z2 D2 | G3 G A G F E | D4 z2 D2 | 
G3 G G G F G | A4 z2 A2 | B3 B A G A B | G4 z2 D2 |
G3 G G G F G | A6 A2 | B3 B A G A B | G4-G2 z2 ||
